coreui/free/cil-video.svg

<svg xmlns="http://www.w3.org/2000/svg" viewBox="0 0 512 512">
  <path fill="var(--ci-primary-color, currentColor)" d="M461,132,360,171.277V72H16V440H360V332.723L461,372h35V132Zm3,206.833-136-52.89V408H48V104H328V218.057l136-52.89Z" class="ci-primary"/>
</svg>

<svg viewBox="0 0 512 512" xmlns="http://www.w3.org/2000/svg"><path d="M461 132l-101 39.27V71.99H16v368h344V332.71l101 39.27h35v-240Zm3 206.83l-136-52.89v122.05H48v-304h280v114.05l136-52.89Z"/></svg>
